public/images/icons/logo.svg

<svg width="30" height="38" viewBox="0 0 30 38" fill="none" xmlns="http://www.w3.org/2000/svg">
<path fill-rule="evenodd" clip-rule="evenodd" d="M29.4798 6.73336C29.0029 6.25241 28.526 5.77146 28.0491 5.33422C24.4075 1.74893 19.7254 0 15 0C10.3179 0 5.59249 1.74893 1.95087 5.2905C1.47399 5.77146 0.99711 6.29613 0.520231 6.73336C-0.17341 7.43294 -0.17341 8.52601 0.520231 9.22558L2.99133 11.7178C3.68497 12.4174 4.81214 12.4174 5.50578 11.7178C6.11272 11.1057 6.71965 10.4498 7.36994 9.88143C9.53757 8.00134 12.2688 7.08315 14.9566 7.08315C16.7775 7.08315 18.6416 7.52038 20.289 8.35112L12.4855 16.1776C11.0983 17.5767 11.0983 19.8066 12.4855 21.162C13.8728 22.5611 16.1272 22.5611 17.5145 21.162C21.5029 17.1832 25.4913 13.2044 29.4798 9.18186C30.1734 8.52601 30.1734 7.38921 29.4798 6.73336Z" fill="#F03360"/>
<path fill-rule="evenodd" clip-rule="evenodd" d="M27.0087 25.6654C26.315 24.9659 25.1879 24.9659 24.4942 25.6654L23.237 26.8897C20.9827 29.1633 17.9913 30.3001 15 30.3001C12.1387 30.3001 9.27746 29.2507 7.06647 27.1957C6.54624 26.7148 6.02601 26.1901 5.50578 25.6654C4.81214 24.9659 3.68497 24.9659 2.99133 25.6654L0.520231 28.1139C-0.17341 28.8135 -0.17341 29.9503 0.520231 30.6499C0.953757 31.0871 1.38728 31.5681 1.86416 32.0053C5.50578 35.5906 10.2746 37.3832 15 37.3832C20.2023 37.3832 24.7977 35.3282 28.4393 31.6992L29.4798 30.6499C30.1734 29.9503 30.1734 28.8135 29.4798 28.1139L27.0087 25.6654Z" fill="#BFBFC5"/>
</svg>

<svg xmlns="http://www.w3.org/2000/svg" width="30" height="38" fill="none" viewBox="0 0 30 38"><path fill="#F03360" fill-rule="evenodd" d="M29.48 6.733c-.477-.48-.954-.962-1.43-1.399C24.406 1.75 19.724 0 15 0A18.676 18.676 0 0 0 1.95 5.29C1.475 5.771.998 6.296.52 6.733a1.753 1.753 0 0 0 0 2.493l2.471 2.492c.694.7 1.821.7 2.515 0 .607-.612 1.214-1.268 1.864-1.837 2.168-1.88 4.899-2.798 7.587-2.798 1.82 0 3.685.437 5.332 1.268l-7.804 7.827c-1.387 1.399-1.387 3.629 0 4.984a3.537 3.537 0 0 0 5.03 0c3.988-3.979 7.976-7.958 11.965-11.98a1.7 1.7 0 0 0 0-2.449z" clip-rule="evenodd"/><path fill="#BFBFC5" fill-rule="evenodd" d="M27.009 25.665c-.694-.7-1.821-.7-2.515 0l-1.257 1.225C20.983 29.163 17.991 30.3 15 30.3a11.65 11.65 0 0 1-7.934-3.104c-.52-.481-1.04-1.006-1.56-1.53-.694-.7-1.821-.7-2.515 0l-2.47 2.448a1.805 1.805 0 0 0 0 2.536c.433.437.866.918 1.343 1.355A18.705 18.705 0 0 0 15 37.383c5.202 0 9.798-2.055 13.44-5.684l1.04-1.05a1.805 1.805 0 0 0 0-2.535l-2.471-2.449z" clip-rule="evenodd"/></svg>
